<?xml version="1.0" encoding="UTF-8"?>
<map version="1.10" tiledversion="1.10.2" orientation="orthogonal" renderorder="right-down" compressionlevel="0" width="8" height="5" tilewidth="16" tileheight="16" infinite="0" nextlayerid="23" nextobjectid="38">
 <properties>
  <property name="DayTiles" value="Front 2 4 256 Front 2 5 288 Front 14 1 256 Front 14 2 288 Front 22 1 256 Front 22 2 288 Front 28 1 256 Front 28 2 288 Front 30 1 256 Front 30 2 288 Front 32 1 256 Front 32 2 288 Front 34 1 256 Front 34 2 288 Front 36 1 256 Front 36 2 288 Back 2 7 671 Back 2 8 703 Back 14 4 671 Back 14 5 703 Back 22 4 671 Back 22 5 703 Back 28 4 671 Back 28 5 703 Back 30 4 671 Back 32 4 671 Back 34 4 671 Back 36 4 671"/>
  <property name="NightTiles" value="Front 2 4 1253 Front 2 5 1285 Front 14 1 1253 Front 14 2 1285 Front 22 1 1253 Front 22 2 1285 Front 28 1 1253 Front 28 2 1285 Front 30 1 1253 Front 30 2 1285 Front 32 1 1253 Front 32 2 1285 Front 34 1 1253 Front 34 2 1285 Front 36 1 1253 Front 36 2 1285 Back 2 7 575 Back 2 8 607 Back 14 4 575 Back 14 5 607 Back 22 4 575 Back 22 5 606 Back 28 4 575 Back 28 5 606 Back 30 4 575 Back 32 4 575 Back 34 4 575 Back 36 4 575"/>
  <property name="Warp" value="3 15 Town 101 90"/>
 </properties>
 <tileset firstgid="1" name="untitled tile sheet" tilewidth="16" tileheight="16" tilecount="2176" columns="32">
  <image source="townInterior.png" width="512" height="1088"/>
 </tileset>
 <tileset firstgid="2177" name="untitled tile sheet2" tilewidth="16" tileheight="16" tilecount="1312" columns="32">
  <image source="townInterior_2.png" width="512" height="656"/>
 </tileset>
 <tileset firstgid="3489" name="z_glass" tilewidth="16" tileheight="16" tilecount="6400" columns="25">
  <image source="z_glass" width="400" height="4096"/>
 </tileset>
 <layer id="21" name="Back" width="8" height="5">
  <data encoding="csv">
93,93,93,93,93,93,93,93,
0,0,0,0,0,0,0,0,
0,0,0,0,0,0,0,0,
3231,0,0,0,0,0,0,3231,
93,93,93,93,93,93,93,93
</data>
 </layer>
 <layer id="19" name="Buildings2" width="8" height="5">
  <data encoding="csv">
0,0,0,0,0,0,0,0,
0,0,0,0,0,0,0,0,
0,0,0,0,0,0,0,0,
8297,8298,8299,8300,8301,8302,8303,8304,
0,0,0,0,0,0,0,0
</data>
 </layer>
 <layer id="4" name="Front" width="8" height="5">
  <data encoding="csv">
0,0,0,0,0,0,0,0,
0,0,0,0,0,0,0,0,
8272,8273,8274,8275,8276,8277,8278,8279,
0,0,0,0,0,0,0,0,
0,0,0,0,0,0,0,0
</data>
 </layer>
 <layer id="16" name="AlwaysFront3" width="8" height="5">
  <data encoding="csv">
8222,8223,8224,8225,8226,8227,8228,8229,
8247,8248,8249,8250,8251,8252,8253,8254,
0,0,0,0,0,0,0,0,
0,0,0,0,0,0,0,0,
0,0,0,0,0,0,0,0
</data>
 </layer>
 <objectgroup id="22" name="Back"/>
 <objectgroup id="20" name="Buildings2"/>
 <objectgroup id="11" name="Front"/>
 <objectgroup id="18" name="AlwaysFront3"/>
</map>
